X:1
T:Tocatta and Fugue in D Minor
T:Tocatta and Fugue in D Minor
T:for Solo Tuba
T:Att. J.S. Bach Arr. Sir Ronald Hamlet IV 
C:Att. J.S. Bach
L:1/8
Q:1/4=40
M:4/4
K:F
V:1 bass nm="Tuba" snm="Tba."
V:1
 !fermata!MA, z G,/8F,/8E,/8D,/8^C,!tenuto!D,/- !tenuto!D, z z2 | %1
 !fermata!MA,, z[Q:1/4=30] E,,/4F,,/4^C,,/4D,, z/4 z4 | %2
 !fermata!MA,,, z G,,,/8F,,,/8E,,,/8D,,,/8^C,,,!tenuto!D,,,/- !tenuto!D,,, z[Q:1/4=50] D,,2- | %3
 D,,6!f!!f!!f! G,,!tenuto!E,, | !fermata!^F,,2 z2 z z z[Q:1/4=60]"^\n" ^C,, | %5
 (3D,,/E,,/^C,,/(3D,,/E,,/C,,/ (3D,,/E,,/C,,/D,,/E,,/ (3F,,/G,,/E,,/(3F,,/G,,/E,,/ (3F,,/G,,/E,,/F,,/G,,/ | %6
 (3A,,/B,,/G,,/(3A,,/B,,/G,,/ (3A,,/B,,/G,,/ A,,2 z z z/[Q:1/4=70] ^C,/ | %7
 (3D,/E,/^C,/(3D,/E,/C,/ (3D,/E,/C,/D,/E,/ (3F,/G,/E,/(3F,/G,/E,/ (3F,/G,/E,/F,/G,/ | %8
 (3A,/B,/G,/(3A,/B,/G,/ (3A,/B,/G,/ A,2 z z z/ A,/ | %9
 (3G,/B,/E,/(3G,/B,/E,/ (3F,/A,/D,/(3F,/A,/D,/ (3E,/G,/C,/(3E,/G,/C,/ (3D,/F,/B,,/(3D,/F,/B,,/ | %10
 (3C,/E,/A,,/(3C,/E,/A,,/ (3B,,/D,/G,,/(3B,,/D,/G,,/ (3A,,/C,/F,,/(3A,,/C,/F,,/ (3G,,/B,,/E,,/(3G,,/B,,/E,,/ | %11
 (3F,,/A,,/D,,/(3F,,/A,,/D,,/[Q:1/4=50] (3E,,/G,,/^C,,/[Q:1/4=30](3E,,/G,,/C,,/ !fermata!D,,2 z2 | %12
[Q:1/4=65] B,,2- B,,2- B,,/4A,,/4G,,/4F,,/4E,,/4 D,,/4^C,,/4=B,,,/4 C,,/A,,,/C,,/ E,,/4G,,/4 | %13
 G,,/4F,,/4G,,/4F,,E,,/4 !fermata!D,,2 z z/ .A,,/ .D,/.E,/.F,/.D,/ | %14
 .E,/.F,/.G,/.E,/ .F,/.G,/.A,/.F,/ .G,/.A,/.B,/.G,/ .A,/.F,/.G,/.E,/ | %15
 .F,/.D,/.E,/.^C,/ .D,/.A,/.B,/.G,/ .A,/.F,/.G,/.E,/ .F,/.D,/.G,/.E,/ | %16
 .F,/.D,/.E,/.^C,/ D,/A,,/B,,/G,,/ A,,/F,,/G,,/E,,/ F,,/D,,/G,,/E,,/ | %17
 F,,/D,,/E,,/^C,,/ D,,D,,/4F,,/4B,,/4F,,/4 =C,,/4E,,/4A,,/4E,,/4B,,,/4D,,/4G,,/4D,,/4 A,,,/4_D,,/4E,,/4A,,/4=D,,/B,,/ | %18
 A,,,/A,,/B,,,/G,,/ _D,,=D,,/4F,,/4B,,/4F,,/4 C,,/4 E,,/4A,,/4E,,/4B,,,/4 D,,/4G,,/4D,,/4 A,,,/4^C,,/4 E,,/4A,,/4D,,/B,,/ | %19
 A,,,/A,,/B,,,/G,,/ A,,2 A,,/4G,,/4F,,/4E,,/4D,,/4^C,,/4=B,,,/4C,,/4 A,,,/4B,,,/4C,,/4D,,/4E,,/4F,,/4G,,/4A,,/4 | %20
 G,,/4F,,/4E,,/4F,,/4D,,/4F,,/4A,,/4^C,/4 D,/4A,,/4=B,,/4C,/4D,/4E,/4F,/8G,/8A,/4 B,D,/B,/ A,,/A,/B,,/G,/ | %21
 A, D,/4F,/4B,/4F,/4 C,/4E,/4A,/4E,/4B,,/4D,/4G,/4D,/4 A,,/4^C,/4E,/4A,/4D,/B,/ A,,/A,/B,,/A,/ | %22
 A,=B,, !fermata!^C,>B,, A,,/C,/E,/4G,/4!fermata!B,/ A,/4G,/4F,/4E,/4F,/4E,/4D,/4C,/4 | %23
 D,/4C,/4B,,/4A,,/4G,,/4F,,/4E,,/4D,,/4 E,,4 z2 | %24
 (3^C,/E,/C,/(3B,,/C,/B,,/ (3C,/E,/C,/(3B,,/C,/B,,/ (3C,/E,/C,/(3B,,/C,/B,,/ (3C,/E,/C,/(3B,,/C,/B,,/ | %25
 (3G,,/B,,/G,,/(3E,,/G,,/E,,/ (3G,,/B,,/G,,/(3E,,/G,,/B,,/ (3G,,/B,,/G,,/(3E,,/G,,/E,,/ (3G,,/B,,/G,,/(3E,,/G,,/E,,/ | %26
 (3^C,,/E,,/C,,/(3B,,,/C,,/B,,,/ (3C,,/E,,/C,,/(3B,,,/C,,/B,,,/ (3C,,/E,,/C,,/(3B,,,/C,,/B,,,/ (3C,,/E,,/C,,/(3B,,,/C,,/B,,,/ | %27
 (3^C,,/E,,/C,,/(3E,,/G,,/E,,/ (3C,,/E,,/C,,/(3E,,/G,,/E,,/ (3C,,/E,,/C,,/(3E,,/G,,/E,,/ (3C,,/E,,/C,,/(3E,,/G,,/E,,/ | %28
 (3G,,/B,,/G,,/(3B,,/G,,/B,,/ (3G,,/B,,/G,,/(3B,,/G,,/B,,/ (3^C,/B,,/C,/(3E,/C,/E,/ (3C,/E,/C,/(3E,/C,/E,/ | %29
 G,2 F,2 B,3 A,/G,/ | A,>E, F,/D,/E,/^C,/ D,/=B,,/C,/A,,/ _B,,/^G,,/A,,/G,/ | %31
 F,D, A,,2 !fermata!D,,4 | %32
!p![Q:1/4=80] .A,,/.G,,/.A,,/.F,,/ .A,,/.E,,/.A,,/.D,,/ .A,,/.^C,,/.A,,/.D,,/ .A,,/.E,,/.A,,/.F,,/ | %33
 .A,,/.A,,,/.A,,/.=B,,,/ .A,,/.^C,,/.A,,/.D,,/ .A,,/.C,,/.A,,/.D,,/ .A,,/.E,,/.A,,/F,,/ | %34
!pp! .D,/.C,/.D,/.B,,/ .D,/.A,,/.D,/.G,,/ .D,/.^F,,/.D,/.G,,/ .D,/.A,,/.D,/.B,,/ | %35
 .D,/.D,,/.D,/.E,,/ .D,/.^F,,/.D,/.G,,/ .D,/.F,,/.D,/.G,,/ .D,/.A,,/.D,/.B,,/ | %36
 .G,,/.D,/.G,,/.B,,/ .G,,/.D,/.G,,/"^Solo"!p!.C,/ ._E,/.C,/.E,/.C,/ .E,/.C,/.E,/.C,/ | %37
 .F,/.C,/.F,/.C,/ .F,/.C,/.F,/.B,,/ .D,/.B,,/.D,/.B,,/ .D,/.B,,/.D,/.B,,/ | %38
 .E,/.B,,/.E,/.B,,/ .E,/.B,,/.E,/.A,,/ .^C,/.A,,/.C,/.A,,/ .C,/.A,,/.C,/.F,/ | %39
 .D,/.F,/.D,/.F,/ .D,/.F,/.D,/.E,/ .B,,/.E,/.B,,/.E,/ .B,,/.E,/.B,,/.D,/ | %40
 .A,,/.D,/.A,,/.D,/ .A,,/.D,/.A,,/.E,/ .G,,/.E,/.G,,/.E,/ .G,,/.E,/.G,,/!mp!.A,,/ | %41
 .G,,/.A,,/.F,,/.A,,/ .E,,/.A,,/.D,,/.A,,/ .^C,,/.A,,/.D,,/.A,,/ .E,,/.A,,/.F,,/.A,,/ | %42
 .A,,,/.A,,/.=B,,,/.A,,/ .^C,,/.A,,/.D,,/.A,,/ .C,,/.A,,/.D,,/.A,,/ .E,,/.A,,/.F,,/.A,,/ | %43
 .E,,/.A,,/.E,,/.A,,/ .C,,/.A,,/.D,,/.A,,/ .E,,/.A,,/.D,,/.G,,/ .B,,,/.G,,/.E,,/.G,,/ | %44
 .D,,/.G,,/.C,,/.G,,/ .B,,,/.G,,/.A,,,/.G,,/ .B,,,/.G,,/.C,,/.F,,/ .A,,,/.F,,/.D,,/.F,,/ | %45
 .C,,/.F,,/.B,,,/.F,,/ .A,,,/.F,,/.G,,,/.F,,/ .A,,,/.F,,/.B,,,/.E,,/ .G,,,/.E,,/.^C,,/.E,,/ | %46
 .B,,,/.E,,/.A,,,/.E,,/ .G,,,/.E,,/.F,,,/.E,,/ .G,,,/.E,,/.A,,,/.D,,/ .F,,,/.D,,/.E,,,/.E,,/ | %47
 .E,,,/.E,,/.F,,,/.D,,/ .F,,,/.D,,/.B,,,/.^C,,/ .B,,,/.C,,/.A,,,/.D,,/ .F,,,/.D,,/.E,,,/.E,,/ | %48
 .E,,,/.E,,/.F,,,/.D,,/ .F,,,/.D,,/ z/ .D,,/ .^C,,/.D,,/.=B,,,/.D,,/ .C,,/.B,,,/ z | %49
 .A,,/.G,,/.A,,/.E,,/ .G,,/.F,,/.E,,/ z/ .D,,/.^C,,/.D,,/.F,,/ .D,,/.C,,/.=B,,,/.A,,,/ | %50
 .A,,/.G,,/.A,,/.^C,,/ .G,,/.F,,/.E,,/ z/!mf! .D,/.^C,/.D,/.A,,/ .A,,/.G,,/.A,,/.^F,,/ | %51
!mf! .D,/.C,/.D,/.G,/ .F,/._E,/.D,/.^C,/ .=E,/.A,,/.C,/!<(!.D,/ ._E,/.D,/.=C,/.=B,,/ | %52
 .D,/.G,,/.=B,,/.C,/ .D,/.C,/._B,,/!<)!!>(!.A,,/ .C,/.^F,,/.A,,/.D,/ .C,/.B,,/.A,,/.B,,/!>)! | %53
 .B,,/.A,,/.G,,/ z/!f!"^solo" .D,/.C,/.D,/.B,,/ .D,/.A,,/.D,/.G,,/ .D,/.^F,,/.D,/.G,,/ | %54
 .D,/.A,,/.D,/.B,,/ .D,/.D,,/.D,/.E,,/ .D,/.^F,,/.D,/.G,,/ .D,/.F,,/.D,/.G,,/ | %55
 .D,/.A,,/.D,/ !tenuto!B,,2 z .=B,, !tenuto!C,2 z/ | z/ .^C, !tenuto!D,2 z .D, !tenuto!E,2 z/ | %57
 z/ .E,F,A,, B,,C, G,,2 z/ | z/ B,,-B,,.A,, .G,,.C, !tenuto!F,,2 z/ | %59
!mf! .C,/.B,,/.C,/.A,,/ .C,/.G,,/.C,/.F,,/ .C,/.E,,/.C,/.F,,/ .C,/.G,,/.C,/.A,,/ | %60
 .C,/.C,,/.C,/.D,,/ .C,/.E,,/.C,/.F,,/ .C,/.E,,/.C,/.F,,/ .C,/.G,,/.C,/!mp!.C,/ | %61
 .B,,/.A,,/.G,,/.F,,/ ._E,,/.D,,/.C,,/!mp!.D,/ .C,/.B,,/.A,,/.G,,/ .F,,/.=E,,/.D,,/.E,/ | %62
 .D,/.C,/.B,,/.A,,/ .G,,/.F,,/.E,,/!mf!.F,/ .E,/.D,/.C,/.B,,/ .A,,/.G,,/.F,,/!mf!.G,,/ | %63
 .F,,/.E,,/.D,,/.C,,/ .B,,,/.A,,,/.G,,,/!mf!.A,,/ .F,,/.E,,/.F,,/.C,,/ .F,,/.E,,/.F,,/.A,,/ | %64
 .F,,/.E,,/.F,,/.C,,/ .F,,/.E,,/.F,,/!p!(G,,/ E,,/).D,,/.E,,/(C,,/ E,,/).D,,/.E,,/(G,,/ | %65
 E,,/).D,,/.E,,/(C,,/ E,,/).D,,/.E,,/!mf!(A,,/ F,,/).E,,/.F,,/(C,,/ F,,/).E,,/.F,,/(A,,/ | %66
 F,,/).E,,/.F,,/(C,,/ F,,/).E,,/.F,,/!mp!(G,,/ E,,/).D,,/.E,,/(C,,/ E,,/).D,,/.E,,/!<(!(G,,/ | %67
 E,,/).D,,/.E,,/(C,,/ E,,/).D,,/.E,,/!<)!!mf!!tenuto!F,,/ G,,/F,,/E,,/D,,/ C,,/=B,,,/A,,,/!<(!(B,,,/ | %68
 G,,,/=B,,,/D,,/F,,/ A,,/F,,/D,,/!<)!!>(!B,,,/ G,,,/B,,,/D,,/F,,/ A,,/F,,/D,,/._B,,,/)!>)! | %69
 G,,,/B,,,/C,,/E,,/ G,,/E,,/C,,/B,,,/ G,,,/B,,,/C,,/E,,/ G,,/E,,/C,,/!<(!(.A,,/ | %70
 .F,,/.A,,/.C,/.D,/ .F,/.D,/.B,,/!<)!.A,,/ .F,,/.A,,/.C,/.D,/ .F,/.D,/.B,,/)!<(!(.G,,/ | %71
 .E,,/.G,,/.B,,/.^C,/ .E,/.C,/.B,,/!<)!!>(!.G,,/ .E,,/.G,,/.B,,/.C,/ .E,/.C,/.B,,/)!>)!!p!.A,,/ | %72
 .G,,/.A,,/.F,,/.A,,/ .E,,/.A,,/.D,,/.A,,/ .^C,,/.A,,/.D,,/.A,,/ .E,,/.A,,/.F,,/.A,,/ | %73
 .A,,,/.A,,/.=B,,,/.A,,/ .^C,,/.A,,/.D,,/.A,,/ .C,,/.A,,/.D,,/.A,,/ .G,,/.A,,/ z/!f! .^F,,/ | %74
 .E,,/.^F,,/ z/ .D,/ .C,/.D,/.B,,/.C,/ .B,,/.A,,/!<(!.G,,/.=F,,/ .E,,/.D,,/!<)!(.^C,,/!mf!.A,,,/) | %75
 .^C,,/.E,,/!mf!.G,,/.B,,/ .G,,/.E,,/(.C,,/.A,,,/) .C,,/.E,,/.G,,/.B,,/ .G,,/.E,,/.D,,/.A,,,/ | %76
 .D,,/.F,,/.A,,/.D,/ .A,,/.F,,/.D,,/.A,,,/ .D,,/.F,,/.A,,/.D,/ .A,,/.F,,/(.^C,,/.A,,,/) | %77
 .^C,,/.E,,/!p!.G,,/.B,,/ .G,,/.E,,/(.C,,/.A,,,/) .C,,/.E,,/.G,,/.B,,/ .G,,/.E,,/.A,,/.D,/ | %78
 .A,,/.F,,/(.D,,/.A,,,/ .D,,/.F,,/.A,,/).D,/ .A,,/.F,,/.E,,/.^C,,/ .E,,/.G,,/.B,,/.^C,/ | %79
 .B,,/.G,,/.E,,/.^C,,/ .E,,/.G,,/(.B,,/.^C,/ .B,,/.G,,/)!mp!(.F,,/.D,,/ .F,,/.A,,/).D,/.F,/ | %80
 .D,/.A,,/!mp!.F,,/.D,,/ .F,,/.A,,/.D,/.F,/ .D,/.A,,/.E,/.^C,/ .E,/.G,/.B,,/.C,/ | %81
 .B,,/.G,,/.E,,/.^C,,/ .E,,/.G,,/.B,,/.^C,/ .B,,/.G,,/.F,,/.D,,/ .F,,/.A,,/.D,/.F,/ | %82
 .D,/.A,,/.F,,/.D,,/ .F,,/.A,,/.D,/.F,/ .D,/.A,,/.G,,/.E,,/ .G,,/.B,,/.^C,/.E,/ | %83
 .^C,/.B,,/.G,,/.E,,/ .G,,/.B,,/.C,/.E,/ .C,/.B,,/.A,,/.F,,/ .A,,/.C,/!mf!(.D,/.F,/ | %84
 .D,/.A,,/.B,,/.D,/ .B,,/.G,,/).F,,/.A,,/ .F,,/.D,,/.A,,/.D,/ .A,,/.F,,/.D,,/.D,/ | %85
 .^C,/.B,,/ z/!mp! .B,/ .A,/.G,/.F,/.G,/ .F,/.E,/!f!.D,/.B,,/ .A,,/.G,,/.F,,/.G,,/ | %86
 .F,,/.E,,/.D,,/.E,,/4.F,,/4 .G,,/4.A,,/4.B,,/4.^C,/4.D,/.F,/ .E,/.D,/.A,,/.=B,,/4.C,/4 .D,/4.E,/4.F,/4.G,/4.A,/.G,/ | %87
 .F,/.E,/.F,/._E,/4.D,/4 .C,/4.B,,/4.A,,/4.G,,/4.^F,,/"^dim.".E,/ .D,/.C,/"^Solo"!f!.G,,/.=F,,/ .G,,/._E,,/.G,,/.D,,/ | %88
 .G,,/.C,,/.G,,/.=B,,,/ .G,,/.C,,/.G,,/.D,,/ .G,,/._E,,/.G,,/.G,,,/ .G,,/.A,,,/.G,,/.B,,,/ | %89
 .G,,/!>(!.C,,/.G,,/.=B,,,/ .G,,/.C,,/.G,,/.D,,/ .G,,/!>)!G,/"^solo"!f!.G,/.F,/ .G,/._E,/.G,/.D,/ | %90
 .G,/.C,/.G,/.=B,,/ .G,/.C,/.G,/.D,/ .G,/._E,/.G,/.G,,/ .G,/.A,,/.G,/.B,,/ | %91
 .G,/.C,/.G,/.=B,,/ .G,/.C,/.G,/.D,/ .G,/G,,/!f!(G,,/F,,/ G,,/)._E,,/.F,,/.D,,/ | %92
 ._E,,/.C,,/(F,,/E,,/ F,,/).D,,/.E,,/.C,,/ .D,,/!mf!.B,,,/(E,,/D,,/ E,,/).C,,/.D,,/.B,,,/ | %93
 .C,,/.A,,,/(D,,/C,,/ D,,/).B,,,/.C,,/.A,,,/ .B,,,/._E,/.G,/.^F,/ .G,/.A,/.G,/.F,/ | %94
 .E,/ z/ .D,/.C,/ .D,/.B,,/.D,/.A,,/ .D,/.G,,/.D,/.^F,,/ .D,/.G,,/.D,/.A,,/ | %95
 .D,/.B,,/.D,/.D,,/ .D,/.E,,/.D,/.^F,,/ .D,/.G,,/.D,/.F,,/ .D,/.G,,/.D,/.A,,/ | %96
 .D,/.D,/.C,/.B,,/ .A,,/.B,,/.A,,/.B,,/ .G,,/.A,,/.B,,/.C,/ .D,/._E,/.D,/.C,/ | %97
 .D,/.B,,/.C,/.A,,/ .B,,/.G,,/.B,,/.A,,/ .G,,/.F,,/.C,,/._E,,/ .F,,/.G,,/._A,,/(G,,/ | %98
 F,,/G,,/)._E,,/.F,,/ .D,,/.E,,/!<(!._E,/.F,/ .D,/.E,/.C,/.E,/ .D,/.F,/!<)!.G,/.F,/ | %99
 ._E,/.F,/.D,/.B,,/ .E,/.D,/.^C,/.A,,/ .D,/.=C,/.=B,,/.G,,/ .C,/._B,,/!mf!.A,,/.F,,/ | %100
 .A,,/.D,/.C,/.D,/ .C,/.B,,/.A,,/.C,/ .A,,/.B,,/.G,,/.C,/ .B,,/.A,,/.B,,/.C,/ | %101
 .B,,/.A,,/.G,,/.A,,/ .F,,/.G,,/!mp!.B,,/.A,,/ .G,,/ z/ z/ ._E,/ .D,/.C,/.D,/.C,/ | %102
 .B,,/.A,,/.G,,/.F,,/ ._E,,/.D,,/.A,,/.B,,/ .A,,/.G,,/.F,,/.G,,/ .=E,,/.A,,/!<(!.A,,/.G,,/ | %103
 .A,,/.F,,/!<)!!f!.G,,/.A,,/ .G,,/.A,,/.B,,/.A,,/ .G,,/.A,,/.F,,/.G,,/ .E,,/.F,,/.D,,/.C,,/ | %104
 .B,,,/.A,,,/!>(!.B,,,/.A,,,/ .G,,,/.F,,,/!>)!!f!"^solo".E,,/.F,,/ .E,,/.D,,/.C,,/.A,,,/ .D,,/.A,,,/.E,,/.A,,,/ | %105
 .F,,/.A,,,/.G,,/.A,,,/ .F,,/.A,,,/!<(!.E,,/.A,,,/ .D,,/.A,,,/!tenuto!C,, !tenuto!A,,,!<)!!ff!.D,,/.A,,/ | %106
 .F,,/.D,/.G,,/!tenuto!D,.^C,/.F,,/ z3/2 .E,,/.A,,/ .G,,/.A,,/.F,,/.A,,/ | %107
 .E,,/.A,,/.D,,/.A,,/ .^C,,/.A,,/.D,,/.A,,/ .E,,/.A,,/.F,,/.A,,/ .A,,,/.A,,/.=B,,,/.A,,/ | %108
 .^C,,/.A,,/.D,,/.A,,/ .C,,/.A,,/.D,,/.A,,/ .E,,/.A,,/.A,/.B,/ .G,/.A,/.F,/.G,/ | %109
 .E,/.F,/.D,/.A,,/ .^C,/.A,,/.D,/.A,,/ .E,/.A,,/.F,/.A,,/ .E,/.A,,/.F,/.A,,/ | %110
 .G,/.A,,/.A,/.A,/ .E,/.A,/.F,/.A,/ .G,/.A,/ z/!f! .A,,/ .G,,/.A,,/.F,,/.A,,/ | %111
 .E,,/.A,,/.D,,/.A,,/ .^C,,/.A,,/.D,,/.A,,/ .E,,/.A,,/.F,,/.A,,/ .A,,,/.A,,/.=B,,,/.A,,/ | %112
 .^C,,/.A,,/.D,,/.A,,/ .C,,/.A,,/.D,,/.A,,/ .E,,/.A,,/.E,/.D,/ .^C,/!tenuto!D, z/ | %113
 .F,/.E,/.F,/.G,/ .A,/(B,/A,/).G,/ .A,/.F,.E,.D,/.E,/ .F,/ | %114
 ._E,/.D,/.C,/ .B,,/ .A,,/(G,,/A,,/).B,,/ E,-E,/C,/ B,,/F,,/(G,,/C,/ | %115
 _E,/C,/D,/B,,/ G,,/D,,/)(G,,/B,,/ D,/G,/)(C,/D,/ B,,/C,/.A,,/)"^(Large Breath!)" z/ | %116
 !breath!z!p!!<(! (^F,,/D,,/ F,,/G,,/)(A,,/D,/ A,,/G,,/)!<)!!>(!(F,,/D,,/ F,,/G,,/)(A,,/D,/ | %117
 A,,/^F,,/)!>)!"^sim."(G,,/D,,/ G,,/A,,/)(B,,/D,/ B,,/A,,/)(G,,/D,,/ G,,/A,,/)(B,,/D,/ | %118
 C,/B,,/)(A,,/^F,,/ A,,/B,,/)(C,/^D,/ C,/B,,/)(A,,/F,,/ A,,/B,,/)C,/_E,/ | %119
 C,/B,,/!<(!A,,/C,/ D,/^F,/!<)!!mp!G,,/B,,/ G,,/D,,/B,,/G,,/ B,,/D,/G,/B,/ | %120
 G,/D,/!mp!C,/A,,/ C,/_E,/^F,/A,/ F,/E,/C,/A,,/ C,/E,/F,/A,/ | %121
 ^F,/_E,/ z/!f! .D,/ .C,/.D,/.B,,/.D,/ .A,,/.D,/.G,,/.G,/ .=F,/.G,/.E,/.G,/ | %122
 .D,/.G,/.C,/.C,/ .B,,/.C,/.A,,/.C,/ .G,,/.C,/.F,,/.F,/ ._E,/.F,/.D,/.F,/ | %123
 .C,/.F,/.D,/._E,/ .D,/.C,/.B,,/.C,/ .B,,/.A,,/.G,,/.C,/ .B,,/.A,,/.G,,/.A,,/ | %124
 .G,,/.^F,,/.G,,/.=F,,/ .E,,/.D,,/!tenuto!^C,, !tenuto!E,,.F,,/.G,,/ .A,,/.=B,,/.E,,/.F,,/ | %125
 .G,,/.A,,/!tenuto!B,, .A,,/.G,,/.F,,/.A,,/ .E,,/.A,,/.D,,/.A,,/ .^C,,/.A,,/.D,,/.A,,/ | %126
 .E,,/.A,,/.F,,/.A,,/ .A,,,/.A,,/.=B,,,/.A,,/ .^C,,/.A,,/.D,,/.A,,/ .C,,/.A,,/.D,,/.A,,/ | %127
 .=B,,,/.A,,/[Q:1/4=60]!<(!!tenuto!A,, !tenuto!F,,[Q:1/4=40] !tenuto!G,, !tenuto!A,,!tenuto!F,,!tenuto!D,,[Q:1/4=31] !tenuto!G,, | %128
 !tenuto!A,,!<)! !fermata!B,,,7 | %129
[Q:1/4=90] z/ .F,,/.G,,/.A,,/ .B,,/.A,,,/.B,,,/.C,,/ .D,,/[Q:1/4=100].C,,/.D,,/._E,,/ .F,,/.F,,,/.G,,,/.A,,,/ | %130
 .B,,,/[Q:1/4=110].A,,,/.B,,,/.C,,/ .D,,/.A,,/.G,,/.F,,/ ._E,,/[Q:1/4=130].G,,/.A,,/.B,,/ .C,/.G,,/.F,,/.E,,/ | %131
 .D,,/[Q:1/4=150].F,,/.G,,/.A,,/ .B,,/.A,,/.B,,/.C,/ .D,/[Q:1/4=190].C,,/.D,,/._E,,/ .F,,/.F,,/.G,,/.A,,/ | %132
 .B,,/.A,,/.B,,/.C,/ .D,/.C,/.B,,/.A,,/ .G,,/.B,,,/[Q:1/4=210].C,,/.D,,/ ._E,,/.D,/.C,/.B,,/ | %133
 .A,,/.C,/[Q:1/4=190].D,/.E,/ .^F,/._E,/.D,/.C,/ .B,,/.^F,,/[Q:1/4=130].G,,/.A,,/[Q:1/4=90] !tenuto!.B,,/[Q:1/4=60]!tenuto!.C,/[Q:1/4=40]!tenuto!D,/!tenuto!G,,/ | %134
!ff![Q:1/4=30] (^C,4 F,3) (D, | %135
 !breath!^G,,4) z/[Q:1/4=55] !tenuto!G,,/!tenuto!=B,,/!tenuto!F,,/ !tenuto!G,,/!tenuto!D,,/[Q:1/4=40]!tenuto!F,,/!tenuto!=B,,,/ | %136
[Q:1/4=31] !tenuto!D,,/!tenuto!^G,,,/!tenuto!A,,,!fff! E,,,6 | !fermata!C,,4 z4 | %138
 z/!mf![Q:1/4=50] .G,/.F,/.G,/ .E,/!mf!.E,,/.D,,/.E,,/ .C,,/[Q:1/4=60].A,,/.G,,/.A,,/ .F,,/.F,/.E,/.F,/ | %139
 .D,/[Q:1/4=70].=B,,/.A,,/.B,,/ .G,,/.G,/.F,/.G,/ .E,/[Q:1/4=80].C,/.B,,/.C,/ .A,,/.D,,/.C,,/.D,,/ | %140
 .=B,,,/[Q:1/4=90].E,,/.D,,/.E,,/ .C,,/[Q:1/4=100].F,,/.E,,/.F,,/ .D,,/[Q:1/4=110].G,,/.F,,/.G,,/ .E,,/[Q:1/4=120].C,/.=B,,/.C,/ | %141
 .A,,/[Q:1/4=130].D,/.C,/.D,/ .=B,,/.^G,,/.^F,,/.G,,/ .E,,/.C,/.B,,/.C,/ .A,,/.F,/.E,/.F,/ | %142
 .D,/.=B,,/.A,,/.B,,/ .C,,/.A,,/.G,,/.A,,/ .=B,,,/.^G,,/.^F,,/.G,,/ .E,,/.C,/.B,,/.A,,/ | %143
 ._A,,/.D,/.C,/.=B,,/ .=A,,/.E,/.D,/.C,/ .B,,/.F,/.E,/.D,/ .C,/.G,/.F,/.E,/ | %144
[M:3/4] .D,/.A,,/.G,,/.F,,/[Q:1/4=120]!<(! !tenuto!E,,/[Q:1/4=100]!tenuto!G,,/[Q:1/4=80]!tenuto!A,,/[Q:1/4=55]!tenuto!=B,,/[Q:1/4=40] !tenuto!C,!tenuto!G,,!<)! | %145
[M:2/4]!f![Q:1/4=50] !tenuto!^C,!<(! (3(A,,,/4^C,,/4E,,/4 (3A,,/4C,/4E,/4!<)! !tenuto!A,)!tenuto!C, | %146
 !tenuto!D,"^sim."!<(! (3(A,,,/4D,,/4F,,/4 (3A,,/4D,/4F,/4!<)! !tenuto!A,)!tenuto!D, | %147
 !tenuto!=B,,!<(! (3(G,,,/4=B,,,/4D,,/4 (3G,,/4B,,/4D,/4!<)! !tenuto!G,)!tenuto!B,, | %148
 !tenuto!C,!<(! (3(G,,,/4C,,/4E,,/4 (3G,,/4C,/4E,/4!<)! !tenuto!G,)!tenuto!C, | %149
[Q:1/4=45] !tenuto!A,,!<(! (3(F,,,/4A,,,/4C,,/4 (3F,,/4A,,/4C,/4!<)! !tenuto!F,)!tenuto!A,, | %150
[Q:1/4=35] !tenuto!B,,!<(! (3(F,,,/4B,,,/4D,,/4 (3F,,/4B,,/4D,/4!<)! !tenuto!F,)!tenuto!B,, | %151
[Q:1/4=25] !tenuto!B,, (E,,,/8G,,,/8)B,,,/8_D,,/8E,,/8G,,/8B,,/8D,/8 !tenuto!E,!tenuto!B,, | %152
[Q:1/4=17] !tenuto!A,,!<(! (3(A,,,/4C,,/4D,,/4 (3^F,,/4A,,/4C,/4!<)! !tenuto!D,)!tenuto!A,, | %153
[M:4/4][Q:1/4=25]!<(! G,,2 B,,2 E,,2 F,,2!<)! |!ff![Q:1/4=40] A,,4 B,,2 G,,2 | %155
!fff![Q:1/4=30]"^\n" D,,4 !fermata!D,,,4 |] %156

